TRX_noborder.svg

<?xml version="1.0" encoding="UTF-8" standalone="no"?>
<svg
   version="1.0"
   width="571pt"
   height="571pt"
   viewBox="0 0 571.00001 571"
   preserveAspectRatio="xMidYMid"
   id="svg22"
   xmlns="http://www.w3.org/2000/svg"
   xmlns:svg="http://www.w3.org/2000/svg">
  <defs
     id="defs1" />
  <g
     id="layer3"
     style="display:inline">
    <a
       id="a1">
      <path
         style="display:inline;opacity:0.99;fill:#16a085;fill-opacity:1;stroke:#000000;stroke-width:0.498576;stroke-opacity:0"
         d="m 354.457,468.799 c -9.24073,-1.20639 -16.763,-5.57 -24.181,-13.105 -9.213,-9.357 -14.007,-18.842 -24.167,-47.822 -3.919,-11.179 -7.994,-22.093 -9.054,-24.254 -2.541,-5.176 -5.99486,-9.26842 -10.22627,-11.17867 -2.58413,-1.16659 -5.23757,-1.92209 -9.14306,-2.07273 -5.95724,-0.22977 -10.08645,0.36241 -12.64988,1.15165 -2.85462,1.00263 -6.69479,3.04775 -8.79379,5.47875 -4.563,5.287 -7.101,12.935 -8.981,27.061 -1.564,11.75 -2.035,14.505 -3.269,19.095 -3.48,12.954 -10.931,18.101 -30.134,20.814 -6.38,0.902 -18.785,1.024 -23.17,0.229 -5.984,-1.085 -10.32435,-3.86673 -12.2592,-7.45836 -0.77808,-1.44434 -1.34691,-2.48121 -1.56159,-3.42864 -0.52086,-2.29865 -0.80338,-3.21734 -0.76104,-5.79593 0.0362,-2.20602 0.39556,-4.3832 1.39683,-7.45494 1.25208,-3.8412 1.68659,-4.06562 5.377,-11.96613 1.92467,-4.12037 5.24467,-10.63931 5.62974,-12.42747 1.21826,-5.65734 1.26739,-17.74973 1.26739,-17.74973 -0.0636,-11.42773 -0.5672,-15.62204 -1.5704,-20.31606 -1.18669,-5.55259 -2.57233,-13.42307 -2.72773,-26.58174 -0.019,-17.369 0.424,-21.034 3.746,-31.021 7.335,-22.049 20.951,-41.957 37.098,-54.242 14.56,-11.078 30.654,-18.091 49.359,-21.509 4.99,-0.912 7.844,-1.095 17.201,-1.106 10.36,-0.011 11.713,0.093 17.699,1.358 33.557,7.096 60.902,28.755 76.705,60.757 2.07,4.192 4.799,10.672 6.064,14.399 0,0 1.69346,4.46984 2.3,6.777 1.20971,4.60147 2.1623,9.24392 2.6532,14.02473 0.5414,5.27261 0.2768,15.99327 0.2768,15.99327 0,14.04 -0.092,15.936 -0.789,16.204 -1.016,0.39 -5.875,0.392 -6.888,0.004 -1.367,-0.525 -2.854,-3.582 -3.307,-6.8 -0.513,-3.639 -1.309,-4.505 -5.154,-5.607 -5.235,-1.5 -33.914,-4.254 -45.935,-4.411 -9.194,-0.12 -10.026,0.582 -8.532,7.195 1.051,4.652 3.258,8.691 6.954,12.725 6.978,7.615 13.88,11.026 25.253,12.479 7.204,0.921 8.16,1.209 9.18,2.768 0.839,1.283 2.35,9.107 5.034,26.073 3.431,21.686 4.924,27.632 7.981,31.775 1.444,1.957 2.568,2.752 6.603,4.673 7.659,3.644 8.072,4.324 5.89,9.693 -3.687,9.076 -13.267,18.84 -22.419,22.85 -5.034,2.206 -13.73615,3.286 -17.995,2.73 z"
         id="path903" />
    </a>
    <path
       style="display:inline;opacity:0.99;fill:#16a085;fill-opacity:1;stroke:#000000;stroke-width:0.498576;stroke-opacity:0"
       d="m 223.6425,230.09704 c -3.78887,-2.54973 -9.66716,-7.45807 -14.02683,-11.71234 -4.7876,-4.67186 -5.6546,-6.75798 -4.07616,-9.80772 1.5831,-3.05873 8.36121,-9.24578 17.5426,-16.01286 16.51238,-12.17034 33.88456,-19.23623 53.09829,-21.597 5.65218,-0.69448 19.95012,-0.69795 26.17522,-0.006 16.49724,1.8328 33.69468,6.92058 36.17188,10.70127 0.71255,1.08748 0.71412,1.34412 0.0166,2.69311 -1.95896,3.78822 -15.73358,21.38888 -21.4679,27.43083 l -3.48111,3.66787 -3.48197,-0.3431 c -7.3399,-0.72326 -26.1208,-0.33758 -34.18195,0.70195 -12.61244,1.62645 -19.61647,3.75447 -34.89996,10.60358 -7.68582,3.44431 -12.78172,5.38417 -14.1439,5.38417 -0.39242,0 -1.85256,-0.76653 -3.24476,-1.70341 z"
       id="path901" />
    <path
       style="display:inline;opacity:0.99;fill:#16a085;fill-opacity:1;stroke:#000000;stroke-width:0.498576;stroke-opacity:0"
       d="m 125.2695,400.94219 c -3.56586,-4.44824 -4.78204,-6.4026 -8.09508,-13.00862 -9.59843,-19.13872 -18.164539,-48.83104 -20.759899,-71.95914 -0.32836,-2.92617 -0.45283,-5.89485 -0.27659,-6.59705 0.44877,-1.78805 1.99629,-2.44653 11.836639,-5.03658 4.75551,-1.25167 8.84341,-2.47281 9.08423,-2.71362 1.21242,-1.21244 -1.6407,-2.29135 -11.35053,-4.29225 -10.807559,-2.22711 -10.931699,-2.4286 -10.579939,-17.17266 0.46111,-19.32744 2.65635,-32.70631 8.630709,-52.59972 2.38678,-7.9475 6.27353,-17.91562 8.12236,-20.83092 1.34838,-2.12616 1.67331,-2.35265 3.37277,-2.35093 1.03435,7.5e-4 5.24602,0.7956 9.35927,1.76571 11.01156,2.59704 14.74979,3.34252 15.0842,3.00811 0.46243,-0.46243 -2.07391,-2.93976 -8.60271,-8.40254 -9.13488,-7.64333 -10.22081,-8.77487 -10.22081,-10.65017 0,-0.88274 0.79616,-3.1357 1.76924,-5.00659 2.22999,-4.28749 11.21081,-17.73921 14.91992,-22.34748 9.47474,-11.7716 28.94018,-29.91867 34.20964,-31.89266 0.44038,-0.16497 4.78243,3.65878 11.60171,10.21686 10.26856,9.87521 12.55544,11.85015 13.096,11.30959 0.33814,-0.33814 -1.67727,-5.44719 -6.51012,-16.50301 -2.61206,-5.97546 -4.45039,-10.88923 -4.6248,-12.36193 -0.2855,-2.41058 -0.25574,-2.47682 2.15861,-4.80393 5.70504,-5.49894 31.49252,-18.03429 46.55645,-22.63121 16.70227,-5.09687 35.794,-7.71333 42.56474,-5.83334 2.96074,0.82209 3.92474,2.28984 6.04242,9.19986 1.66125,5.42069 2.71019,7.43168 3.46784,6.6484 0.0991,-0.10243 0.64647,-2.94025 1.21644,-6.30627 0.56997,-3.366 1.53011,-7.26789 2.13365,-8.67087 l 1.09734,-2.55084 10.75231,0.2971 c 14.67201,0.40541 31.76881,2.79344 38.7972,5.41907 l 2.61752,0.97784 -0.006,4.07743 c -0.004,2.24258 -0.33532,7.44281 -0.73766,11.55606 -1.01257,10.35184 -0.99011,12.71795 0.12052,12.698 1.11156,-0.0199 1.59141,-0.70716 6.60368,-9.45727 6.39193,-11.15863 7.71853,-12.96296 9.5307,-12.96296 6.7245,0 34.42929,14.43417 43.78026,22.80947 l 2.67668,2.3974 -2.39265,4.22349 c -4.14677,7.31985 -16.15612,24.81789 -27.19383,39.62235 -6.43829,8.63543 -9.35674,11.85557 -11.26234,12.42651 -1.56747,0.46964 -4.31334,-0.63625 -11.59332,-4.66921 -14.56839,-8.0706 -30.07683,-13.42915 -47.21894,-16.31535 -7.48046,-1.25948 -23.74868,-1.24281 -30.86115,0.0316 -7.17179,1.28506 -17.16713,3.91285 -22.93448,6.02952 -12.21952,4.48469 -27.89072,13.40745 -38.6396,22.00037 -10.58693,8.46345 -21.86695,21.30087 -29.51921,33.59484 -9.12081,14.6533 -13.39341,26.36197 -18.10255,49.60826 -3.27044,16.14428 -3.40882,19.17156 -3.05699,66.87797 0.26322,35.6909 0.2052,41.27804 -0.45155,43.48959 -1.91802,6.45866 -12.99243,14.31153 -27.11508,19.2273 -2.81228,0.97889 -5.4026,1.7798 -5.75627,1.7798 -0.35368,0 -1.85706,-1.51443 -3.34086,-3.36538 z"
       id="path899" />
  </g>
</svg>

<ns0:svg xmlns:ns0="http://www.w3.org/2000/svg" version="1.0" width="571pt" height="571pt" viewBox="0 0 571.00001 571" preserveAspectRatio="xMidYMid" id="svg22">
  <ns0:g id="layer3" style="display:inline">
    <ns0:path style="display:inline;opacity:0.99;fill:#16a085;fill-opacity:1;stroke:#000000;stroke-width:0.498576;stroke-opacity:0" d="M 354.457 468.799 C 345.255 467.326 337.694 463.229 330.276 455.694 C 321.063 446.337 316.269 436.852 306.109 407.872 C 302.19 396.693 298.115 385.779 297.055 383.618 C 294.514 378.442 290.74 374.375 286.575 372.324 C 283.737 370.927 282.726 370.709 278.147 370.505 C 272.79 370.267 267.665 370.941 265.755 372.134 C 265.182 372.492 263.823 372.942 262.736 373.133 C 259.914 373.63 258.341 374.566 256.242 376.997 C 251.679 382.284 249.141 389.932 247.261 404.058 C 245.697 415.808 245.226 418.563 243.992 423.153 C 240.512 436.107 233.061 441.254 213.858 443.967 C 207.478 444.869 195.073 444.991 190.688 444.196 C 184.704 443.111 180.519 440.369 177.809 435.759 C 176.539 433.599 176.465 433.125 176.465 427.089 L 176.465 420.704 L 182.88 408.092 L 189.294 395.48 L 189.039 378.33 C 188.837 364.734 188.612 360.458 187.953 357.691 C 185.596 347.792 185.496 346.713 185.479 331.017 C 185.46 313.648 185.903 309.983 189.225 299.996 C 196.56 277.947 210.176 258.039 226.323 245.754 C 240.883 234.676 256.977 227.663 275.682 224.245 C 280.672 223.333 283.526 223.15 292.883 223.139 C 303.243 223.128 304.596 223.232 310.582 224.497 C 344.139 231.593 371.484 253.252 387.287 285.254 C 389.357 289.446 392.086 295.926 393.351 299.653 L 395.651 306.43 L 398.581 320.547 L 398.581 336.448 C 398.581 350.488 398.489 352.384 397.792 352.652 C 396.776 353.042 391.917 353.044 390.904 352.656 C 389.537 352.131 388.05 349.074 387.597 345.856 C 387.084 342.217 386.288 341.351 382.443 340.249 C 377.208 338.749 348.529 335.995 336.508 335.838 C 327.314 335.718 326.482 336.42 327.976 343.033 C 329.027 347.685 331.234 351.724 334.93 355.758 C 341.908 363.373 348.81 366.784 360.183 368.237 C 367.387 369.158 368.343 369.446 369.363 371.005 C 370.202 372.288 371.713 380.112 374.397 397.078 C 377.828 418.764 379.321 424.71 382.378 428.853 C 383.822 430.81 384.946 431.605 388.981 433.526 C 396.64 437.17 397.053 437.85 394.871 443.219 C 391.184 452.295 381.604 462.059 372.452 466.069 C 367.418 468.275 359.085 469.539 354.457 468.799 Z" id="path903" />
    <ns0:path style="display:inline;opacity:0.99;fill:#16a085;fill-opacity:1;stroke:#000000;stroke-width:0.498576;stroke-opacity:0" d="m 223.6425,230.09704 c -3.78887,-2.54973 -9.66716,-7.45807 -14.02683,-11.71234 -4.7876,-4.67186 -5.6546,-6.75798 -4.07616,-9.80772 1.5831,-3.05873 8.36121,-9.24578 17.5426,-16.01286 16.51238,-12.17034 33.88456,-19.23623 53.09829,-21.597 5.65218,-0.69448 19.95012,-0.69795 26.17522,-0.006 16.49724,1.8328 33.69468,6.92058 36.17188,10.70127 0.71255,1.08748 0.71412,1.34412 0.0166,2.69311 -1.95896,3.78822 -15.73358,21.38888 -21.4679,27.43083 l -3.48111,3.66787 -3.48197,-0.3431 c -7.3399,-0.72326 -26.1208,-0.33758 -34.18195,0.70195 -12.61244,1.62645 -19.61647,3.75447 -34.89996,10.60358 -7.68582,3.44431 -12.78172,5.38417 -14.1439,5.38417 -0.39242,0 -1.85256,-0.76653 -3.24476,-1.70341 z" id="path901" />
    <ns0:path style="display:inline;opacity:0.99;fill:#16a085;fill-opacity:1;stroke:#000000;stroke-width:0.498576;stroke-opacity:0" d="m 125.2695,400.94219 c -3.56586,-4.44824 -4.78204,-6.4026 -8.09508,-13.00862 -9.59843,-19.13872 -18.164539,-48.83104 -20.759899,-71.95914 -0.32836,-2.92617 -0.45283,-5.89485 -0.27659,-6.59705 0.44877,-1.78805 1.99629,-2.44653 11.836639,-5.03658 4.75551,-1.25167 8.84341,-2.47281 9.08423,-2.71362 1.21242,-1.21244 -1.6407,-2.29135 -11.35053,-4.29225 -10.807559,-2.22711 -10.931699,-2.4286 -10.579939,-17.17266 0.46111,-19.32744 2.65635,-32.70631 8.630709,-52.59972 2.38678,-7.9475 6.27353,-17.91562 8.12236,-20.83092 1.34838,-2.12616 1.67331,-2.35265 3.37277,-2.35093 1.03435,7.5e-4 5.24602,0.7956 9.35927,1.76571 11.01156,2.59704 14.74979,3.34252 15.0842,3.00811 0.46243,-0.46243 -2.07391,-2.93976 -8.60271,-8.40254 -9.13488,-7.64333 -10.22081,-8.77487 -10.22081,-10.65017 0,-0.88274 0.79616,-3.1357 1.76924,-5.00659 2.22999,-4.28749 11.21081,-17.73921 14.91992,-22.34748 9.47474,-11.7716 28.94018,-29.91867 34.20964,-31.89266 0.44038,-0.16497 4.78243,3.65878 11.60171,10.21686 10.26856,9.87521 12.55544,11.85015 13.096,11.30959 0.33814,-0.33814 -1.67727,-5.44719 -6.51012,-16.50301 -2.61206,-5.97546 -4.45039,-10.88923 -4.6248,-12.36193 -0.2855,-2.41058 -0.25574,-2.47682 2.15861,-4.80393 5.70504,-5.49894 31.49252,-18.03429 46.55645,-22.63121 16.70227,-5.09687 35.794,-7.71333 42.56474,-5.83334 2.96074,0.82209 3.92474,2.28984 6.04242,9.19986 1.66125,5.42069 2.71019,7.43168 3.46784,6.6484 0.0991,-0.10243 0.64647,-2.94025 1.21644,-6.30627 0.56997,-3.366 1.53011,-7.26789 2.13365,-8.67087 l 1.09734,-2.55084 10.75231,0.2971 c 14.67201,0.40541 31.76881,2.79344 38.7972,5.41907 l 2.61752,0.97784 -0.006,4.07743 c -0.004,2.24258 -0.33532,7.44281 -0.73766,11.55606 -1.01257,10.35184 -0.99011,12.71795 0.12052,12.698 1.11156,-0.0199 1.59141,-0.70716 6.60368,-9.45727 6.39193,-11.15863 7.71853,-12.96296 9.5307,-12.96296 6.7245,0 34.42929,14.43417 43.78026,22.80947 l 2.67668,2.3974 -2.39265,4.22349 c -4.14677,7.31985 -16.15612,24.81789 -27.19383,39.62235 -6.43829,8.63543 -9.35674,11.85557 -11.26234,12.42651 -1.56747,0.46964 -4.31334,-0.63625 -11.59332,-4.66921 -14.56839,-8.0706 -30.07683,-13.42915 -47.21894,-16.31535 -7.48046,-1.25948 -23.74868,-1.24281 -30.86115,0.0316 -7.17179,1.28506 -17.16713,3.91285 -22.93448,6.02952 -12.21952,4.48469 -27.89072,13.40745 -38.6396,22.00037 -10.58693,8.46345 -21.86695,21.30087 -29.51921,33.59484 -9.12081,14.6533 -13.39341,26.36197 -18.10255,49.60826 -3.27044,16.14428 -3.40882,19.17156 -3.05699,66.87797 0.26322,35.6909 0.2052,41.27804 -0.45155,43.48959 -1.91802,6.45866 -12.99243,14.31153 -27.11508,19.2273 -2.81228,0.97889 -5.4026,1.7798 -5.75627,1.7798 -0.35368,0 -1.85706,-1.51443 -3.34086,-3.36538 z" id="path899" />
  </ns0:g>
</ns0:svg>
